X: 377
T: Lord Duncans Fancy
%R: strathspey
Z: 2014 John Chambers <jc:trillian.mit.edu>
B: Preston "Twenty four Country Dances for the Year 1800" p.169 #1
F: http://www.vwml.org/browse/browse-collections-dance-tune-books/browse-prestons1800# 2014-8-10
M: C|
L: 1/16
K: F
A2 |\
Fc3 (dcBA) cF3c3A | Fc3 (dcBA) B2G2G2A2 |\
Fc3 (dcBA) cF3c3A | f3g (agfe) f2F2 F2 :|
d2 |\
cf3 gagf d2f2c2f2 | dg3 (bagf) g2d2d2f2 |\
cf3 gagf d2f2c2f2 | (Bcd2) c2B2 A2F2F2d2 |
cf3 (gagf) d2f2c2f2 | dg3a2f2 e2g4b2 |\
a2f2d2g2 fd3c3A | BG3c3B A2F2F2 |]
% - - - - - - - - - - - - - - - - - - - - - - - - -
%%begintext align
%% 1st Cu: set to 2d Lady & hands 3 round .| same to the
%% 2d Gent: :| lead down the middle up again :|. Allemand :|:
%%endtext
% - - - - - - - - - - - - - - - - - - - - - - - - -

%%sep 1 1 500
%%sep 1 1 500
